configs/marketplace-logos/ante_logo.svg

<svg xmlns="http://www.w3.org/2000/svg" fill="none" viewBox="0 0 512 512">
  <path fill="url(#ante_logo_svg__a)" d="M0 0h512v512H0z"/>
  <path fill="url(#ante_logo_svg__b)" d="M197.646 217.691 256 251.381l58.353-33.69L256 184l-58.354 33.691Zm91.531 91.155L260 325.691V258.31l58.354-33.691v24.027l-29.177 16.846v7.968l21.177-12.227v15.382l-21.177 12.226v20.005Z"/>
  <path fill="url(#ante_logo_svg__b)" fill-rule="evenodd" d="M193.646 224.619V292l25.173 14.534v-19.998l8 4.619v19.998l25.18 14.538V258.31l-58.353-33.691Zm25.173 46.555 8 4.619v-8l-8-4.619v8Z" clip-rule="evenodd"/>
  <path fill="url(#ante_logo_svg__b)" fill-rule="evenodd" d="M99.317 316.868a3.943 3.943 0 0 1 .913-4.228l28.867-28.651a4.071 4.071 0 0 0 1.113-3.673c-3.163-16.27-3.197-33.378.386-50.482a4.073 4.073 0 0 0-1.068-3.698l-28.511-28.95a3.942 3.942 0 0 1-.863-4.238 166.807 166.807 0 0 1 24.684-42.144 3.94 3.94 0 0 1 4.099-1.324l39.466 10.575a4.075 4.075 0 0 0 3.713-.868 128.694 128.694 0 0 1 41.864-24.17 4.078 4.078 0 0 0 2.609-2.782l10.575-39.466a3.941 3.941 0 0 1 3.195-2.889 166.898 166.898 0 0 1 50.853-.008 3.945 3.945 0 0 1 3.196 2.873l10.77 39.499a4.07 4.07 0 0 0 2.612 2.767 127.224 127.224 0 0 1 42.044 24.279 4.073 4.073 0 0 0 3.738.872l39.246-10.674a3.943 3.943 0 0 1 4.118 1.324 168.96 168.96 0 0 1 25.553 44.26 3.94 3.94 0 0 1-.912 4.227L382.71 227.95a4.076 4.076 0 0 0-1.114 3.674 127.223 127.223 0 0 1 .004 48.55 4.072 4.072 0 0 0 1.09 3.646l28.822 29.077a3.94 3.94 0 0 1 .89 4.203 166.845 166.845 0 0 1-25.433 44.036 3.942 3.942 0 0 1-4.099 1.324l-39.466-10.575a4.076 4.076 0 0 0-3.714.868 128.683 128.683 0 0 1-41.864 24.17 4.073 4.073 0 0 0-2.608 2.782l-10.575 39.466a3.94 3.94 0 0 1-3.196 2.888 166.886 166.886 0 0 1-50.853.008 3.942 3.942 0 0 1-3.195-2.872l-10.77-39.499a4.074 4.074 0 0 0-2.612-2.768 127.253 127.253 0 0 1-42.045-24.278 4.074 4.074 0 0 0-3.737-.873l-39.247 10.675a3.942 3.942 0 0 1-4.117-1.324 168.954 168.954 0 0 1-25.554-44.26Zm129.766 39.584c55.481 14.866 112.508-18.058 127.374-73.539 14.866-55.48-18.059-112.507-73.539-127.373-55.481-14.866-112.508 18.059-127.374 73.539-14.866 55.48 18.059 112.508 73.539 127.373Z" clip-rule="evenodd"/>
  <path fill="url(#ante_logo_svg__b)" fill-rule="evenodd" d="M256 456c110.457 0 200-89.543 200-200S366.457 56 256 56 56 145.543 56 256s89.543 200 200 200Zm0-16c101.62 0 184-82.38 184-184S357.62 72 256 72 72 154.38 72 256s82.38 184 184 184Z" clip-rule="evenodd"/>
  <defs>
    <linearGradient id="ante_logo_svg__a" x1="0" x2="617.74" y1="0" y2="241.305" gradientUnits="userSpaceOnUse">
      <stop stop-color="#E3F2FD"/>
      <stop offset="1" stop-color="#EDE7F6"/>
    </linearGradient>
    <linearGradient id="ante_logo_svg__b" x1="114" x2="303.578" y1="114" y2="451.101" gradientUnits="userSpaceOnUse">
      <stop stop-color="#006FD6"/>
      <stop offset="1" stop-color="#7B61FF"/>
    </linearGradient>
  </defs>
</svg>

<svg width="512" height="512" viewBox="0 0 512 512" fill="none" xmlns="http://www.w3.org/2000/svg">
<g>
<rect width="512" height="512" fill="url(#bg_gradient)"/>
<path d="M197.646 217.691L256 251.381L314.353 217.691L256 184L197.646 217.691Z" fill="url(#fg_gradient)"/>
<path d="M289.177 308.846L260 325.691V258.31L318.354 224.619V248.646L289.177 265.492V273.46L310.354 261.233V276.615L289.177 288.841V308.846Z" fill="url(#fg_gradient)"/>
<path fill-rule="evenodd" clip-rule="evenodd" d="M193.646 224.619V292L218.819 306.534L218.819 286.536L226.819 291.155L226.819 311.153L251.999 325.691V258.31L193.646 224.619ZM218.819 271.174L226.819 275.793L226.819 267.793L218.819 263.174L218.819 271.174Z" fill="url(#fg_gradient)"/>
<path fill-rule="evenodd" clip-rule="evenodd" d="M99.3173 316.868C98.7468 315.405 99.1149 313.747 100.23 312.64L129.097 283.989C130.062 283.032 130.47 281.65 130.21 280.316C127.047 264.046 127.013 246.938 130.596 229.834C130.876 228.499 130.485 227.108 129.528 226.136L101.017 197.186C99.9151 196.067 99.5662 194.405 100.154 192.948C106.393 177.471 114.769 163.338 124.838 150.804C125.817 149.585 127.427 149.075 128.937 149.48L168.403 160.055C169.706 160.404 171.095 160.069 172.116 159.187C184.409 148.564 198.634 140.351 213.98 135.017C215.255 134.573 216.239 133.538 216.589 132.235L227.164 92.769C227.568 91.259 228.815 90.1188 230.359 89.8804C246.894 87.3284 264.011 87.2297 281.212 89.8723C282.752 90.1089 283.998 91.2417 284.408 92.745L295.178 132.244C295.532 133.543 296.517 134.572 297.79 135.011C313.638 140.481 327.797 148.824 339.834 159.29C340.86 160.182 342.26 160.519 343.572 160.162L382.818 149.488C384.334 149.076 385.954 149.586 386.936 150.812C397.644 164.177 406.269 179.115 412.489 195.072C413.06 196.535 412.692 198.193 411.577 199.299L382.71 227.95C381.745 228.908 381.337 230.289 381.596 231.624C384.641 247.281 384.787 263.715 381.6 280.174C381.344 281.496 381.742 282.864 382.69 283.82L411.512 312.897C412.609 314.003 412.968 315.648 412.402 317.1C406.091 333.318 397.447 348.093 386.969 361.136C385.99 362.355 384.38 362.864 382.87 362.46L343.404 351.885C342.1 351.536 340.711 351.871 339.69 352.753C327.398 363.376 313.172 371.589 297.826 376.923C296.552 377.366 295.567 378.401 295.218 379.705L284.643 419.171C284.239 420.681 282.992 421.821 281.447 422.059C264.912 424.611 247.795 424.71 230.594 422.067C229.054 421.831 227.809 420.698 227.399 419.195L216.629 379.696C216.275 378.397 215.289 377.367 214.017 376.928C198.169 371.458 184.01 363.115 171.972 352.65C170.947 351.758 169.546 351.421 168.235 351.777L128.988 362.452C127.473 362.864 125.853 362.354 124.871 361.128C114.162 347.763 105.538 332.825 99.3173 316.868ZM229.083 356.452C284.564 371.318 341.591 338.394 356.457 282.913C371.323 227.433 338.398 170.406 282.918 155.54C227.437 140.674 170.41 173.599 155.544 229.079C140.678 284.559 173.603 341.587 229.083 356.452Z" fill="url(#fg_gradient)"/>
<path fill-rule="evenodd" clip-rule="evenodd" d="M256 456C366.457 456 456 366.457 456 256C456 145.543 366.457 56 256 56C145.543 56 56 145.543 56 256C56 366.457 145.543 456 256 456ZM256 440C357.62 440 440 357.62 440 256C440 154.38 357.62 72 256 72C154.38 72 72 154.38 72 256C72 357.62 154.38 440 256 440Z" fill="url(#fg_gradient)"/>
</g>
<defs>
<linearGradient id="bg_gradient" x1="0" y1="0" x2="617.74" y2="241.305" gradientUnits="userSpaceOnUse">
<stop stop-color="#E3F2FD"/>
<stop offset="1" stop-color="#EDE7F6"/>
</linearGradient>
<linearGradient id="fg_gradient" x1="114" y1="114" x2="303.578" y2="451.101" gradientUnits="userSpaceOnUse">
<stop stop-color="#006FD6"/>
<stop offset="1" stop-color="#7B61FF"/>
</linearGradient>
</defs>
</svg>
